X:8946
T:La Grande Chaine
C:Trad. French Canadian Reel
I:speed 300
M:4/4
K:G
|:B4 BAGB | d2 d2 BGBd | cdcB ADFA | dedc BDGA |
B2B2 BAGB | d2d2 BGBd | cdcB ADFA |[1G3A G2 DG:|[2G3A G2 Bd|
|: g2 gf efge | d2d2 BGBd | cdcB ADFA | dedc BGBd |
g2 gf efge | d2d2 BGBd | cdcB ADFA |[1 G3A G2 Bd:|[2G3 A G2 z2||


